X:1
T:Ad te, Domine - Scarlatti
T:James Gibb editions
T:#
%%score [ 1 2 3 4 ]
L:1/8
Q:1/4=108
M:4/4
K:G
V:1 treble nm="Soprano" snm="S"
V:2 treble nm="Alto" snm="A"
V:3 treble-8 nm="Tenor" snm="T"
V:4 bass nm="Bass" snm="B"
V:1
 B4"^Ad te, Domine" B2 (B2- | B2 AG AB c2- | c2) B2 B4 | %3
w: Ad te Do\-||* mi- ne,|
 z2 B2"^Alessandro Scarlatti\n(1660-1725)" B4- | B4 B4 |[M:4/4] z4 B4- | B2 A2 G2 (G2- | %7
w: le- va\-|* vi|a\-|* ni- mam me\-|
 G2 FE A2 ^A2) | B8 | z4 z2 e2- | e2 e2 c4 | B2 d2 d2 d2 | (_BA A4 G2) | A2 z2 z2 e2 | A2 E2 A4 | %15
w: |am|De\-|* us me-|us, in te con-|fi\- * * *|do, in|te con- fi-|
 ^G2 B4 BB | (^c6 B2 |[M:3/2] A2 ^G2 F8) ||[M:4/4] F8 | B2 BB BB B2 | ^c3 c cc c2 | d2 d3 =c c2- | %22
w: do, non e- ru-|be\- *||scam,|ne- que ir- ri- de- ant|me, ir- ri- de- ant|me i- ni- mi\-|
 c2 B2 (A4- | A2 G4 F2) | G8 | z4 G4 ||[M:3/2] A4 (Bc c4) (BA) ||[M:4/4] G8 | G8 | G3 G G4 | %30
w: * ci, me\-||i|i-|ni- mi\- * * ci *|me-|i.|E- te- nim|
 G2 GG A4 | A2 A2 A2 A2 | B8 | B8 | e6 dA | (c6 BA | ^G2 A4 GF | E2 A4 ^G2) | A4 B4 | AF (G4 A2 | %40
w: qui te ex- pec-|tant, qui te ex-|pec-|tant,|non con- fun-|den\- * *|||tur, non|con- fun- den\- *|
 G2 F4 E2- | E2 ^D2) E2[Q:1/4=106] E2 |[Q:1/4=104] E2[Q:1/4=100] E2 E4[Q:1/4=97] | %43
w: |* * tur, non|con- fun- den-|
[Q:1/4=95] E8[Q:1/4=93][Q:1/4=92][Q:1/4=92] |] %44
w: tur.|
V:2
 G4 G4 | (EDCB, A,2 A2- | A2) G2 G4 | z4 G2 (G2- | G2 FE) F4 |[M:4/4] z4 z2 E2- | E2 E2 E4 | E8 | %8
w: Ad te|Do- * * * * *|* mi- ne,|le- va\-|* * * vi|a\-|* ni- mam|me-|
 F8 | F4 G4 | (EF G4 F2) | G4 z2 =F2 | =F2 F2 D4 | E2 A2 A2 A2 | (=FE E4 ^D2) | E4 z4 | %16
w: am|De- us|me\- * * *|us, in|te con- fi-|do, in te con-|fi\- * * *|do,|
 ^E4 FF (F2- |[M:3/2] F2 ^E2 F=E D2 ^C4) ||[M:4/4] ^D8 | F2 FF FF ^G2 | AE A3 A A2 | A2 F2 E4 | %22
w: non e- ru- be\-||scam,|ne- que ir- ri- de- ant|me, ir- ri- de- ant|me i- ni-|
 FF (G4 FE | D8) | D8 | G3 =F (E4 ||[M:3/2] F4 G3 FGD =F2) ||[M:4/4] (_E4 D4) | !courtesy!=E8 | %29
w: mi- ci, me\- * *||i|i- ni- mi\-|* * * * * ci|me\- *|i.|
 E3 E E4 | z4 E2 EE | F4 F4 | z2 F2 F2 F2 | ^G4 G4 | z4 A4- | A2 GE (=F4 | E8- | E8) | E2 A4 GE | %39
w: E- te- nim|qui te ex-|pec- tant,|qui te ex-|pec- tant,|non|* con- fun- den\-|||tur, non con- fun-|
 (F4 E4- | E2 DC B,4- | B,4) B,2 C2 | C2 B,2 C4 | B,8 |] %44
w: den\- *||* tur, non|con- fun- den-|tur.|
V:3
 e4 e4 | e6 e2 | e8 | z4 e2 (e2- | e2 ^d^c) d4 |[M:4/4][K:treble-8] z2 (e3 dcB | c3) c B2 (B2- | %7
w: Ad te|Do- mi-|ne,|le- va\-|* * * vi|a\- * * *|* ni- mam me\-|
 B2 AG FE e2- | e2 ^d^c) d4 | z2 B4 B2 | c8 | d4 z2 A2 | D2 A2 d4 | ^c4 =c4 | c2 c2 A4 | %15
w: |* * * am|De- us|me-|us, in|te con- fi-|do, in|te con- fi-|
 B2 ^G4 GG | (^G2 A3 F d2 |[M:3/2] ^c6 B4 ^A2) ||[M:4/4] B8 | ^d2 dd dd e2 | e3 e ee e2 | %21
w: do, non e- ru-|be\- * * *||scam,|ne- que ir- ri- de- ant|me, ir- ri- de- ant|
 f2 A2 G4 | (A2 Bc d3) c | (_B4 A4) | !courtesy!=B6 d2- | d2 d4 (c2 ||[M:3/2] cB c2 d2 e2) (d4 || %27
w: me i- ni-|mi\- * * * ci,|me\- *|i i\-|* ni- mi\-|* * * * ci me\-|
[M:4/4] d2 c4 B2 | c8) | c3 c c4 | z4 ^c2 cc | d4 d4 | z2 B2 B2 B2 | B4 B2 e2- | e2 cA (=f4 | %35
w: |i.|E- te- nim|qui te ex-|pec- tant,|qui te ex-|pec- tant, non|* con- fun- den\-|
 e4 d4 | d2 cA B4 | BA c2 B4) | c4 e4- | e2 dB (c4 | B3 A G4 | F4) ^G2 A2 | A2 B4 (A2- | %43
w: |||tur, non|* con- fun- den\-||* tur, non|con- fun- den\-|
 A2 ^GF) G4 |] %44
w: * * * tur.|
V:4
 E,4 E,4 | C,6 A,,2 | E,8 | E,2 (E,3 F,G,A, | B,4) B,4 |[M:4/4] ^G,3 F, G,2 G,2 | A,4 E,3 D, | %7
w: Ad te|Do- mi-|ne,|le- va\- * * *|* vi|a- ni- mam me-|am, a- ni-|
 C,4 C,4 | B,,8 | ^D,4 E,4 | (C,3 B,, A,,4) | G,,4 z2 D,2 | D,2 D,2 _B,,4 | A,,4 A,4 | %14
w: mam me-|am|De- us|me\- * *|us, in|te con- fi-|do, in|
 A,2 A,2 =F,4 | E,4 z4 | ^C,2 C,C, (A,,2 B,,2 |[M:3/2] ^C,3 B,, ^A,,4 F,,4) ||[M:4/4] B,,8 | %19
w: te con- fi-|do,|non e- ru- be\- *||scam,|
 B,,2 B,,B,, B,,B,, E,2 | A,,3 A, A,A, A,2 | D,2 D,4 D,2 | D,4 D,4 | D,8 | G,,8 | G,4 G,2 G,2- || %26
w: ne- que ir- ri- de- ant|me, ir- ri- de- ant|me i- ni-|mi- ci,|me-|i|i- ni- mi\-|
[M:3/2] G,2 G,2 G,8- ||[M:4/4] G,8 | C,8 | C,3 C, C,4 | z8 | z8 | z2 ^D,2 D,2 D,2 | E,4 E,4 | %34
w: * ci me\-||i.|E- te- nim|||qui te ex-|pec- tant,|
 z4 z4 | z4 z4 | z4 E,4 | C,3 A,, E,4 | A,,4 z4 | z4 z4 | B,,4 B,,2 B,,2 | B,,4 E,2 C,2 | %42
w: ||non|con- fun- den-|tur,||non con- fun-|den- tur, non|
 A,,2 G,,2 A,,4 | E,8 |] %44
w: con- fun- den-|tur.|

